X: 52
T:Edelweiss
R:Waltz
C:Richard Rodgers
M:3/4
L:1/4
K:G
B,2D|A3|G2D|C2z|
B,2B,|B,CD|E3|D2z|
B,2D|A3|G2D|C2z|
B,2D|DEF|G3|G3|
ADD|FED|B,2D|G2z|
E2G|A2G|F3|D2z|
B,2D|A3|G2D|C2z|
B,2D|DEF|G3|G2z:|

